X: 1
T: Lady of Spain
C: Tolchard Evans
R: waltz
Z: 2013 John Chambers <jc:trillian.mit.edu>
S: Image at www.cotatifest.com (Cotati Accordion Festival, P.O. Box 809, Cotati, CA 94931)
F: http://www.cotatifest.com/ladyofspain.htm
M: 3/4
L: 1/8
K: C
|: "C"c2 B2 A2 | A2 B2 c2 | "G7"(3BcB A4- | A6 |\
B2 A2 G2 | G2 A2 B2 | "C"(3ABA G4- | G6 |
"A7"A2 G2 F2 | E2 F2 G2 | "Dm"(3GAG F4- | F6 |\
"D7"c2 B2 A2 |[1 A2 B2 c2 | "Fm"d6- | "G7"d G^FGAB :|[2 "G7"B2 c2 d2 | "C"c6- | "^Fine"c6 |]
"Am"E2 F2 G2 | A2 G2 F2 | (3FGF E4- | E6 |\
"Am"E2 F2 G2 | A2 G2 F2 | "A7" (3FGF E4- | E6 |
"D7"d3 A"G7"Bd | "C7"c3 G"E7"Ac | "Bb7"_B3 F"Eb7"GB | "Ab7"_A4 _G2 |\
"Cm"G^FGABc | "Cdim"_e4 A2 | "Fm"d6- | "G7"d "^D.C. al Fine"G^FGAB |]

%%sep 1 1 500

